svgs/regular/list-dropdown.svg

<svg xmlns="http://www.w3.org/2000/svg" viewBox="0 0 512 512"><!--! Font Awesome Pro 6.4.2 by @fontawesome - https://fontawesome.com License - https://fontawesome.com/license (Commercial License) Copyright 2023 Fonticons, Inc. --><path d="M48 192V416c0 8.8 7.2 16 16 16H448c8.8 0 16-7.2 16-16V192H48zM0 96C0 60.7 28.7 32 64 32H448c35.3 0 64 28.7 64 64V416c0 35.3-28.7 64-64 64H64c-35.3 0-64-28.7-64-64V96zm436.7 0H363.3c-7.1 0-10.7 8.6-5.7 13.7l36.7 36.7c3.1 3.1 8.2 3.1 11.3 0l36.7-36.7c5-5 1.5-13.7-5.7-13.7zM128 232H384c13.3 0 24 10.7 24 24s-10.7 24-24 24H128c-13.3 0-24-10.7-24-24s10.7-24 24-24zm0 96H384c13.3 0 24 10.7 24 24s-10.7 24-24 24H128c-13.3 0-24-10.7-24-24s10.7-24 24-24z"/></svg>

<svg xmlns="http://www.w3.org/2000/svg" viewBox="0 0 512 512"><!--! Font Awesome Pro 6.1.1 by @fontawesome - https://fontawesome.com License - https://fontawesome.com/license (Commercial License) Copyright 2022 Fonticons, Inc. --><path d="M384 232C397.3 232 408 242.7 408 256C408 269.3 397.3 280 384 280H128C114.7 280 104 269.3 104 256C104 242.7 114.7 232 128 232H384zM384 328C397.3 328 408 338.7 408 352C408 365.3 397.3 376 384 376H128C114.7 376 104 365.3 104 352C104 338.7 114.7 328 128 328H384zM0 96C0 60.65 28.65 32 64 32H448C483.3 32 512 60.65 512 96V416C512 451.3 483.3 480 448 480H64C28.65 480 0 451.3 0 416V96zM48 192V416C48 424.8 55.16 432 64 432H448C456.8 432 464 424.8 464 416V192H48zM436.7 96H363.3C356.2 96 352.6 104.6 357.7 109.7L394.3 146.3C397.5 149.5 402.5 149.5 405.7 146.3L442.3 109.7C447.4 104.6 443.8 96 436.7 96V96z"/></svg>
